Numix-Light/16/status/indicator-keyboard-Lt-5.svg

<?xml version="1.0" encoding="UTF-8" standalone="no"?>
<svg
   xmlns:dc="http://purl.org/dc/elements/1.1/"
   xmlns:cc="http://creativecommons.org/ns#"
   xmlns:rdf="http://www.w3.org/1999/02/22-rdf-syntax-ns#"
   xmlns:svg="http://www.w3.org/2000/svg"
   xmlns="http://www.w3.org/2000/svg"
   xmlns:sodipodi="http://sodipodi.sourceforge.net/DTD/sodipodi-0.dtd"
   xmlns:inkscape="http://www.inkscape.org/namespaces/inkscape"
   viewBox="0 0 16 16"
   id="svg2"
   version="1.1"
   inkscape:version="0.91 r13725"
   sodipodi:docname="indicator-keyboard-Lt-5.svg">
  <metadata
     id="metadata14">
    <rdf:RDF>
      <cc:Work
         rdf:about="">
        <dc:format>image/svg+xml</dc:format>
        <dc:type
           rdf:resource="http://purl.org/dc/dcmitype/StillImage" />
      </cc:Work>
    </rdf:RDF>
  </metadata>
  <defs
     id="defs12" />
  <sodipodi:namedview
     pagecolor="#ffffff"
     bordercolor="#666666"
     borderopacity="1"
     objecttolerance="10"
     gridtolerance="10"
     guidetolerance="10"
     inkscape:pageopacity="0"
     inkscape:pageshadow="2"
     inkscape:window-width="640"
     inkscape:window-height="480"
     id="namedview10"
     showgrid="false"
     inkscape:zoom="14.75"
     inkscape:cx="8"
     inkscape:cy="8"
     inkscape:window-x="65"
     inkscape:window-y="24"
     inkscape:window-maximized="0"
     inkscape:current-layer="svg2" />
  <path
     style="fill:#353535;fill-opacity:1"
     d="M 1.5996094 0 C 0.71320937 2.9605947e-16 0 0.71320937 0 1.5996094 L 0 14.400391 C 2.9605947e-16 15.286791 0.71320937 16 1.5996094 16 L 14.400391 16 C 15.286791 16 16 15.286791 16 14.400391 L 16 1.5996094 C 16 0.71320937 15.286791 0 14.400391 0 L 1.5996094 0 z M 2.9941406 4.859375 L 3.6054688 4.859375 L 3.6054688 10.564453 L 6.5390625 10.564453 L 6.5390625 11.095703 L 2.9941406 11.095703 L 2.9941406 4.859375 z M 8.0234375 4.9667969 L 8.0234375 6.4433594 L 9.8769531 6.4433594 L 9.8769531 6.9375 L 8.0234375 6.9375 L 8.0234375 9.4121094 C 8.0234375 9.6761094 8.0439375 9.8925467 8.0859375 10.060547 C 8.1339375 10.222547 8.2011563 10.349453 8.2851562 10.439453 C 8.3691562 10.529453 8.4698438 10.589141 8.5898438 10.619141 C 8.7098437 10.649141 8.8423281 10.664063 8.9863281 10.664062 C 9.2323281 10.664062 9.4300781 10.636031 9.5800781 10.582031 C 9.7300781 10.522031 9.8476406 10.469875 9.9316406 10.421875 L 10.076172 10.90625 C 9.9921719 10.96025 9.8447656 11.023703 9.6347656 11.095703 C 9.4247656 11.161703 9.1971719 11.195312 8.9511719 11.195312 C 8.6631719 11.195312 8.4206563 11.159891 8.2226562 11.087891 C 8.0306562 11.009891 7.8739063 10.894141 7.7539062 10.744141 C 7.6399062 10.588141 7.5597187 10.397922 7.5117188 10.169922 C 7.4637187 9.9419217 7.4394531 9.671375 7.4394531 9.359375 L 7.4394531 5.0742188 L 8.0234375 4.9667969 z M 11.041016 8.8417969 L 12.867188 8.8417969 L 12.867188 9.1757812 L 11.375 9.1757812 C 11.371067 9.2498812 11.365189 9.3458906 11.357422 9.4628906 C 11.349622 9.5798906 11.341784 9.6994188 11.333984 9.8242188 C 11.326184 9.9451188 11.316387 10.062681 11.304688 10.175781 C 11.292987 10.288881 11.283191 10.379012 11.275391 10.445312 C 11.575691 10.453112 11.834334 10.490341 12.052734 10.556641 C 12.271134 10.622941 12.451398 10.711119 12.591797 10.824219 C 12.732197 10.937319 12.836044 11.074475 12.902344 11.234375 C 12.972544 11.394275 13.005859 11.572578 13.005859 11.767578 C 13.005859 11.939178 12.978422 12.097894 12.919922 12.246094 C 12.865322 12.394294 12.779109 12.523613 12.662109 12.632812 C 12.54511 12.742012 12.396197 12.828225 12.216797 12.890625 C 12.037397 12.953025 11.825778 12.984375 11.580078 12.984375 C 11.455278 12.984375 11.337716 12.974578 11.228516 12.955078 C 11.123216 12.939478 11.027206 12.919884 10.941406 12.896484 C 10.859506 12.873084 10.788969 12.849572 10.730469 12.826172 C 10.671969 12.802772 10.628862 12.783178 10.601562 12.767578 L 10.701172 12.427734 C 10.724572 12.443334 10.763759 12.462928 10.818359 12.486328 C 10.876859 12.509728 10.943478 12.533241 11.017578 12.556641 C 11.095578 12.576141 11.181791 12.593775 11.275391 12.609375 C 11.372891 12.624975 11.474778 12.632812 11.580078 12.632812 C 11.775078 12.632812 11.935753 12.611259 12.064453 12.568359 C 12.197053 12.521559 12.302859 12.458859 12.380859 12.380859 C 12.458859 12.302859 12.513723 12.212728 12.544922 12.111328 C 12.580022 12.006028 12.597656 11.894337 12.597656 11.773438 C 12.597656 11.617438 12.572184 11.476362 12.521484 11.351562 C 12.470784 11.226762 12.380653 11.120956 12.251953 11.035156 C 12.123253 10.949356 11.950822 10.884697 11.732422 10.841797 C 11.514022 10.794997 11.235791 10.771484 10.900391 10.771484 C 10.923791 10.572584 10.943384 10.392316 10.958984 10.228516 C 10.974584 10.060816 10.9883 9.9001469 11 9.7480469 C 11.0117 9.5920469 11.019537 9.4431281 11.023438 9.2988281 C 11.031238 9.1506281 11.037116 8.9977969 11.041016 8.8417969 z "
     id="path4" />
</svg>

<svg xmlns="http://www.w3.org/2000/svg" viewBox="0 0 16 16">
 <path d="m 1.6 0 c -0.886 0 -1.6 0.713 -1.6 1.6 l 0 12.801 c 0 0.886 0.713 1.6 1.6 1.6 l 12.801 0 c 0.886 0 1.6 -0.713 1.6 -1.6 l 0 -12.801 c 0 -0.886 -0.713 -1.6 -1.6 -1.6 l -12.801 0 z m 1.395 4.859 l 0.611 0 l 0 5.705 l 2.934 0 l 0 0.531 l -3.545 0 l 0 -6.236 z m 5.03 0.107 l 0 1.477 l 1.854 0 l 0 0.494 l -1.854 0 l 0 2.475 c 0 0.264 0.021 0.48 0.063 0.648 c 0.048 0.162 0.115 0.289 0.199 0.379 c 0.084 0.09 0.185 0.15 0.305 0.18 c 0.12 0.03 0.252 0.045 0.396 0.045 c 0.246 0 0.444 -0.028 0.594 -0.082 c 0.15 -0.06 0.268 -0.112 0.352 -0.16 l 0.145 0.484 c -0.084 0.054 -0.231 0.117 -0.441 0.189 c -0.21 0.066 -0.438 0.1 -0.684 0.1 c -0.288 0 -0.531 -0.035 -0.729 -0.107 c -0.192 -0.078 -0.349 -0.194 -0.469 -0.344 c -0.114 -0.156 -0.194 -0.346 -0.242 -0.574 c -0.048 -0.228 -0.072 -0.499 -0.072 -0.811 l 0 -4.285 l 0.584 -0.107 z m 3.02 3.875 l 1.826 0 l 0 0.334 l -1.492 0 c -0.004 0.074 -0.01 0.17 -0.018 0.287 c -0.008 0.117 -0.016 0.237 -0.023 0.361 c -0.008 0.121 -0.018 0.238 -0.029 0.352 c -0.012 0.113 -0.021 0.203 -0.029 0.27 c 0.3 0.008 0.559 0.045 0.777 0.111 c 0.218 0.066 0.399 0.154 0.539 0.268 c 0.14 0.113 0.244 0.25 0.311 0.41 c 0.07 0.16 0.104 0.338 0.104 0.533 c 0 0.172 -0.027 0.33 -0.086 0.479 c -0.055 0.148 -0.141 0.278 -0.258 0.387 c -0.117 0.109 -0.266 0.195 -0.445 0.258 c -0.179 0.062 -0.391 0.094 -0.637 0.094 c -0.125 0 -0.242 -0.01 -0.352 -0.029 c -0.105 -0.016 -0.201 -0.035 -0.287 -0.059 c -0.082 -0.023 -0.152 -0.047 -0.211 -0.07 c -0.058 -0.023 -0.102 -0.043 -0.129 -0.059 l 0.1 -0.34 c 0.023 0.016 0.063 0.035 0.117 0.059 c 0.059 0.023 0.125 0.047 0.199 0.07 c 0.078 0.019 0.164 0.037 0.258 0.053 c 0.097 0.016 0.199 0.023 0.305 0.023 c 0.195 0 0.356 -0.022 0.484 -0.064 c 0.133 -0.047 0.238 -0.109 0.316 -0.188 c 0.078 -0.078 0.133 -0.168 0.164 -0.27 c 0.035 -0.105 0.053 -0.217 0.053 -0.338 c 0 -0.156 -0.025 -0.297 -0.076 -0.422 c -0.051 -0.125 -0.141 -0.231 -0.27 -0.316 c -0.129 -0.086 -0.301 -0.15 -0.52 -0.193 c -0.218 -0.047 -0.497 -0.07 -0.832 -0.07 c 0.023 -0.199 0.043 -0.379 0.059 -0.543 c 0.016 -0.168 0.029 -0.328 0.041 -0.48 c 0.012 -0.156 0.02 -0.305 0.023 -0.449 c 0.008 -0.148 0.014 -0.301 0.018 -0.457 z" style="fill:#353535;fill-opacity:1"/>
</svg>
